dist/svg/moon.svg

<svg width="16" height="16" viewBox="0 0 16 16" fill="rgb(34, 34, 34)" xmlns="http://www.w3.org/2000/svg"><title>moon</title><path d="M10.551 1.938C9.54599 1.348 8.33799 1 7.04899 1C7.02999 1 7.01199 1 6.99299 1H6.99599C9.53099 2.791 10.831 6.746 9.24699 9.481C7.66199 12.218 3.75999 12.753 0.937988 11.46C2.17299 13.59 4.44199 15 7.04099 15C9.62399 15 11.882 13.607 13.104 11.531L13.122 11.498C13.713 10.494 14.062 9.287 14.062 7.998C14.062 5.419 12.664 3.166 10.585 1.955L10.552 1.937L10.551 1.938Z" fill="rgb(34, 34, 34)" fill-opacity="1.00"/></svg>

<!-- Generated by Trend Micro Style Portal -->
<svg version="1.1" xmlns="http://www.w3.org/2000/svg" width="16" height="16" viewBox="0 0 16 16">
  <title>moon</title>
  <path fill="rgb(34,34,34)" d="M10.551 1.938c-1.005-0.59-2.213-0.938-3.502-0.938-0.019 0-0.037 0-0.056 0l0.003-0c2.535 1.791 3.835 5.746 2.251 8.481-1.585 2.737-5.487 3.272-8.309 1.979 1.235 2.13 3.504 3.54 6.103 3.54 2.583 0 4.841-1.393 6.063-3.469l0.018-0.033c0.591-1.004 0.94-2.211 0.94-3.5 0-2.579-1.398-4.832-3.477-6.043l-0.033-0.018z"></path>
</svg>
